X: 44
T: John Ryan's
B: begged borrowed and stolen
M:2/4
L:1/8
R: polka
Q: 1/4=100
K:Dmajor
V:1 
|:"D"dd "G"B/c/d/B/|"D"AF AF|"D"dd "G"B/c/d/B/|"A"AF "(D)"ED|
 "D"dd "G"B/c/d/B/|"D"AF Ad/e/|"D"fd "A"ec|1 "D"d2 d2:|2 "D"d2 d"A7"d/e/||
 "D"fd de/f/|"G"gf "A7"ed/e/|"D" fd Ad|"A7"fe/f/ a3/2g/|
 "D"fd de/f/|"G"gf "A"ed/e/|"D"fd "A7"ec|1 "D"d2 "A7"dd/e/:|2 "D" d2 d2||
% abcbook-tune_id 62828a3a941fbb9699c79b01


% abcbook-boost 0
% abcbook-tablature 
% abcbook-transpose 
% abcbook-lastupdated 1652725431074
% abcbook-soundfonts 
% abcbook-repeats 3
% abc-sessionorg_id 441
% abc-sessionorg_setting 0
% abc-sessionorg_setting_id 28845
% abc-boost 0

